X: 12071
T: the Bres of Ewes
T: the Breas of Ewes
C: James Oswald
%R: air, waltz
B: James Oswald "The Caledonian Pocket Companion" v.1 b.1 p.7 #1
Z: 2020 John Chambers <jc:trillian.mit.edu>
M: 3/4
L: 1/8
K: D
"_Slow"d>e |\
(f>e)(d>B) (A>F) | G4e2 | F2(Eg)(fe) | d4(c>d) |\
e3 EFA | (d2c2)(B/c/e) | (fe)(dc)(BA) | F4(Tc>B) |\
A2a2(T^g>f) | e2(dc)(BA) |
F2(Ed)(cB) | {B}A4 :: A2 |\
(cde)c(TB>A) | (g2f2)B2 | Fe(dc)(B^A) | B4(f>e) |\
d4(E/F/G) | F2E2D2 | B2(Aa)(gf) | {f}e4(d>e) |\
(f>e)(d>B) (A>F) |
G4A4 | B2(gf)(ed) | Tc2(Bc)A2 |\
d4(e/f/)g | (f2e2)d2 | (Bg)(fe)(dc) | {c2}d4D2 |\
A3afd | (B2c2)d2 | (DB)(AG)(FE) | D4 :|
